svg/car_brake_low_pressure.svg

<svg xmlns="http://www.w3.org/2000/svg" viewBox="0 0 24 24"><path d="M13 12c0 .55-.45 1-1 1s-1-.45-1-1 .45-1 1-1 1 .45 1 1m-3 0L7 9v2H3v2h4v2zm4 0 3 3v-2h4v-2h-4V9zm6.5-8.5-1.08 1.08C21.32 6.5 22.5 9.11 22.5 12c0 2.9-1.18 5.5-3.08 7.42l1.08 1.08c2.16-2.19 3.5-5.19 3.5-8.5s-1.34-6.31-3.5-8.5M5.69 9C6.81 6.64 9.22 5 12 5s5.19 1.64 6.32 4h2.18c-1.26-3.5-4.58-6-8.5-6S4.76 5.5 3.5 9zM4.58 4.58 3.5 3.5C1.34 5.69 0 8.69 0 12s1.34 6.31 3.5 8.5l1.08-1.08C2.68 17.5 1.5 14.9 1.5 12c0-2.89 1.18-5.5 3.08-7.42M18.32 15c-1.13 2.36-3.53 4-6.32 4s-5.19-1.64-6.31-4H3.5c1.26 3.5 4.58 6 8.5 6s7.24-2.5 8.5-6z"/></svg>

<svg xmlns="http://www.w3.org/2000/svg" id="mdi-car-brake-low-pressure" viewBox="0 0 24 24"><path d="M13 12C13 12.55 12.55 13 12 13S11 12.55 11 12 11.45 11 12 11 13 11.45 13 12M10 12L7 9V11H3V13H7V15L10 12M14 12L17 15V13H21V11H17V9L14 12M20.5 3.5L19.42 4.58C21.32 6.5 22.5 9.11 22.5 12C22.5 14.9 21.32 17.5 19.42 19.42L20.5 20.5C22.66 18.31 24 15.31 24 12S22.66 5.69 20.5 3.5M5.69 9C6.81 6.64 9.22 5 12 5S17.19 6.64 18.32 9H20.5C19.24 5.5 15.92 3 12 3S4.76 5.5 3.5 9H5.69M4.58 4.58L3.5 3.5C1.34 5.69 0 8.69 0 12S1.34 18.31 3.5 20.5L4.58 19.42C2.68 17.5 1.5 14.9 1.5 12C1.5 9.11 2.68 6.5 4.58 4.58M18.32 15C17.19 17.36 14.79 19 12 19S6.81 17.36 5.69 15H3.5C4.76 18.5 8.08 21 12 21S19.24 18.5 20.5 15H18.32Z" /></svg>
